22x22/apps/com.github.thejambi.psnotes.svg

<svg xmlns="http://www.w3.org/2000/svg" width="22" height="22" version="1">
 <path style="opacity:0.2" d="M 19,20.5 19,6 C 19,5.446 18.554,5 18,5 L 4,5 C 3.446,5 3,5.446 3,6 l 0,14.5 c 0,0.554 0.446,1 1,1 l 14,0 c 0.554,0 1,-0.446 1,-1 z"/>
 <path style="fill:#4691c8" d="M 19,20 19,5.5 c 0,-0.554 -0.446,-1 -1,-1 l -14,0 c -0.554,0 -1,0.446 -1,1 L 3,20 c 0,0.554 0.446,1 1,1 l 14,0 c 0.554,0 1,-0.446 1,-1 z"/>
 <path style="fill:#474747" d="M 19,6 19,4 C 19,3.446 18.554,3 18,3 L 4,3 C 3.446,3 3,3.446 3,4 l 0,2 z"/>
 <path style="opacity:0.2" d="M 4.46875,1.5 C 4.2091615,1.5 4,1.7039324 4,1.9570313 L 4,4.042969 C 4,4.2960675 4.2091615,4.5 4.46875,4.5 l 1.0625,0 C 5.7908385,4.5 6,4.2960675 6,4.042969 L 6,1.9570313 C 6,1.7039324 5.7908385,1.5 5.53125,1.5 Z m 4,0 C 8.2091615,1.5 8,1.7039324 8,1.9570313 L 8,4.042969 C 8,4.2960675 8.2091615,4.5 8.46875,4.5 l 1.0625,0 C 9.790839,4.5 10,4.2960675 10,4.042969 L 10,1.9570313 C 10,1.7039324 9.790839,1.5 9.53125,1.5 Z m 4,0 C 12.209162,1.5 12,1.7039324 12,1.9570313 L 12,4.042969 C 12,4.2960675 12.209162,4.5 12.46875,4.5 l 1.0625,0 C 13.790839,4.5 14,4.2960675 14,4.042969 L 14,1.9570313 C 14,1.7039324 13.790839,1.5 13.53125,1.5 Z m 4,0 C 16.209161,1.5 16,1.7039324 16,1.9570313 L 16,4.042969 C 16,4.2960675 16.209161,4.5 16.46875,4.5 l 1.0625,0 C 17.790838,4.5 18,4.2960675 18,4.042969 L 18,1.9570313 C 18,1.7039324 17.790838,1.5 17.53125,1.5 Z"/>
 <path style="fill:#8e8e8e" d="M 4.46875,1 C 4.2091615,1 4,1.2039324 4,1.4570313 L 4,3.5429687 C 4,3.7960677 4.2091615,4 4.46875,4 l 1.0625,0 C 5.7908385,4 6,3.7960677 6,3.5429687 L 6,1.4570313 C 6,1.2039324 5.7908385,1 5.53125,1 Z m 4,0 C 8.2091615,1 8,1.2039324 8,1.4570313 L 8,3.5429687 C 8,3.7960677 8.2091615,4 8.46875,4 l 1.0625,0 C 9.790839,4 10,3.7960677 10,3.5429687 L 10,1.4570313 C 10,1.2039324 9.790839,1 9.53125,1 Z m 4,0 C 12.209162,1 12,1.2039324 12,1.4570313 l 0,2.0859374 C 12,3.7960677 12.209162,4 12.46875,4 l 1.0625,0 C 13.790839,4 14,3.7960677 14,3.5429687 L 14,1.4570313 C 14,1.2039324 13.790839,1 13.53125,1 Z m 4,0 C 16.209161,1 16,1.2039324 16,1.4570313 l 0,2.0859374 C 16,3.7960677 16.209161,4 16.46875,4 l 1.0625,0 C 17.790838,4 18,3.7960677 18,3.5429687 L 18,1.4570313 C 18,1.2039324 17.790838,1 17.53125,1 Z"/>
 <path style="opacity:0.2;fill:#f4f4f7" d="M 4.46875,1 C 4.2091615,1 4,1.2039324 4,1.4570313 l 0,0.5 C 4,1.7039324 4.2091615,1.5 4.46875,1.5 l 1.0625,0 C 5.7908385,1.5 6,1.7039324 6,1.9570313 l 0,-0.5 C 6,1.2039324 5.7908385,1 5.53125,1 l -1.0625,0 z m 4,0 C 8.2091615,1 8,1.2039324 8,1.4570313 l 0,0.5 C 8,1.7039324 8.2091615,1.5 8.46875,1.5 l 1.0625,0 C 9.790839,1.5 10,1.7039324 10,1.9570313 l 0,-0.5 C 10,1.2039324 9.790839,1 9.53125,1 l -1.0625,0 z m 4,0 C 12.209162,1 12,1.2039324 12,1.4570313 l 0,0.5 C 12,1.7039324 12.209162,1.5 12.46875,1.5 l 1.0625,0 C 13.790839,1.5 14,1.7039324 14,1.9570313 l 0,-0.5 C 14,1.2039324 13.790839,1 13.53125,1 l -1.0625,0 z m 4,0 C 16.209161,1 16,1.2039324 16,1.4570313 l 0,0.5 C 16,1.7039324 16.209161,1.5 16.46875,1.5 l 1.0625,0 C 17.790838,1.5 18,1.7039324 18,1.9570313 l 0,-0.5 C 18,1.2039324 17.790838,1 17.53125,1 l -1.0625,0 z"/>
 <path style="opacity:0.2;fill:none;stroke:#000000;stroke-width:0.999937;stroke-linecap:round;stroke-linejoin:bevel" d="m 4.5070421,16.993 c 0,0 4.0410654,0.507 3.9997509,-1.493 C 8.465481,13.500146 4.5070421,13.993127 4.5070421,13.993127 m 9.82e-5,5.999784 0,-5.999686"/>
 <path style="fill:none;stroke:#f4f4f7;stroke-width:0.999937;stroke-linecap:round;stroke-linejoin:bevel" d="m 4.5070421,16.493 c 0,0 4.0410654,0.507 3.9997509,-1.493 C 8.465481,13.000146 4.5070421,13.493127 4.5070421,13.493127 m 9.82e-5,5.999784 0,-5.999686"/>
 <path style="opacity:0.2;fill:none;stroke:#000000;stroke-width:0.999937;stroke-linecap:round;stroke-linejoin:round" d="m 10.5032,18.999611 c 0,0 0.504353,1.0009 1.999875,1.00042 C 13.998593,19.999547 14.45268,19.5 14.5,18.5 c -0.05328,-2.030516 -3.999945,-1 -4,-3 -0.03359,-1 0.487017,-1.500584 2.003075,-1.500584 1.516054,0 1.999758,0.999936 1.999758,0.999936"/>
 <path style="fill:none;stroke:#f4f4f7;stroke-width:0.999937;stroke-linecap:round;stroke-linejoin:round" d="m 10.5032,18.499611 c 0,0 0.504353,1.0009 1.999875,1.00042 C 13.998593,19.499547 14.45268,19 14.5,18 c -0.05328,-2.030516 -3.999945,-1 -4,-3 -0.03359,-1 0.487017,-1.500584 2.003075,-1.500584 1.516054,0 1.999758,0.999936 1.999758,0.999936"/>
 <circle style="opacity:0.2" cx="7.5" cy="20" r=".5"/>
 <circle style="fill:#f4f4f7" cx="7.5" cy="19.5" r=".5"/>
 <circle style="opacity:0.2" cx="16.5" cy="20" r=".5"/>
 <circle style="fill:#f4f4f7" cx="16.5" cy="19.5" r=".5"/>
</svg>

<svg xmlns="http://www.w3.org/2000/svg" width="22" height="22" version="1"><path style="opacity:.2" d="M19 20.5V6c0-.554-.446-1-1-1H4c-.554 0-1 .446-1 1v14.5c0 .554.446 1 1 1h14c.554 0 1-.446 1-1z"/><path style="fill:#4691c8" d="M19 20V5.5c0-.554-.446-1-1-1H4c-.554 0-1 .446-1 1V20c0 .554.446 1 1 1h14c.554 0 1-.446 1-1z"/><path style="fill:#474747" d="M19 6V4c0-.554-.446-1-1-1H4c-.554 0-1 .446-1 1v2z"/><path style="opacity:.2" d="M4.469 1.5A.462.462 0 0 0 4 1.957v2.086c0 .253.21.457.469.457H5.53c.26 0 .469-.204.469-.457V1.957a.462.462 0 0 0-.469-.457zm4 0A.462.462 0 0 0 8 1.957v2.086c0 .253.21.457.469.457H9.53c.26 0 .469-.204.469-.457V1.957a.462.462 0 0 0-.469-.457zm4 0a.462.462 0 0 0-.469.457v2.086c0 .253.21.457.469.457h1.062c.26 0 .469-.204.469-.457V1.957a.462.462 0 0 0-.469-.457zm4 0a.462.462 0 0 0-.469.457v2.086c0 .253.21.457.469.457h1.062c.26 0 .469-.204.469-.457V1.957a.462.462 0 0 0-.469-.457z"/><path style="fill:#8e8e8e" d="M4.469 1A.462.462 0 0 0 4 1.457v2.086c0 .253.21.457.469.457H5.53C5.791 4 6 3.796 6 3.543V1.457A.462.462 0 0 0 5.531 1zm4 0A.462.462 0 0 0 8 1.457v2.086c0 .253.21.457.469.457H9.53c.26 0 .469-.204.469-.457V1.457A.462.462 0 0 0 9.531 1zm4 0a.462.462 0 0 0-.469.457v2.086c0 .253.21.457.469.457h1.062c.26 0 .469-.204.469-.457V1.457A.462.462 0 0 0 13.531 1zm4 0a.462.462 0 0 0-.469.457v2.086c0 .253.21.457.469.457h1.062c.26 0 .469-.204.469-.457V1.457A.462.462 0 0 0 17.531 1z"/><path style="opacity:.2;fill:#f4f4f7" d="M4.469 1A.462.462 0 0 0 4 1.457v.5c0-.253.21-.457.469-.457H5.53c.26 0 .469.204.469.457v-.5A.462.462 0 0 0 5.531 1H4.47zm4 0A.462.462 0 0 0 8 1.457v.5c0-.253.21-.457.469-.457H9.53c.26 0 .469.204.469.457v-.5A.462.462 0 0 0 9.531 1H8.47zm4 0a.462.462 0 0 0-.469.457v.5c0-.253.21-.457.469-.457h1.062c.26 0 .469.204.469.457v-.5A.462.462 0 0 0 13.531 1H12.47zm4 0a.462.462 0 0 0-.469.457v.5c0-.253.21-.457.469-.457h1.062c.26 0 .469.204.469.457v-.5A.462.462 0 0 0 17.531 1H16.47z"/><path style="opacity:.2;fill:none;stroke:#000;stroke-width:.999937;stroke-linecap:round;stroke-linejoin:bevel" d="M4.507 16.993s4.041.507 4-1.493c-.042-2-4-1.507-4-1.507m0 6v-6"/><path style="fill:none;stroke:#f4f4f7;stroke-width:.999937;stroke-linecap:round;stroke-linejoin:bevel" d="M4.507 16.493s4.041.507 4-1.493c-.042-2-4-1.507-4-1.507m0 6v-6"/><path style="opacity:.2;fill:none;stroke:#000;stroke-width:.999937;stroke-linecap:round;stroke-linejoin:round" d="M10.503 19s.505 1 2 1c1.496 0 1.95-.5 1.997-1.5-.053-2.03-4-1-4-3-.034-1 .487-1.5 2.003-1.5s2 1 2 1"/><path style="fill:none;stroke:#f4f4f7;stroke-width:.999937;stroke-linecap:round;stroke-linejoin:round" d="M10.503 18.5s.505 1 2 1c1.496 0 1.95-.5 1.997-1.5-.053-2.03-4-1-4-3-.034-1 .487-1.5 2.003-1.5s2 1 2 1"/><circle style="opacity:.2" cx="7.5" cy="20" r=".5"/><circle style="fill:#f4f4f7" cx="7.5" cy="19.5" r=".5"/><circle style="opacity:.2" cx="16.5" cy="20" r=".5"/><circle style="fill:#f4f4f7" cx="16.5" cy="19.5" r=".5"/></svg>
